icons/location-16.svg

<svg xmlns="http://www.w3.org/2000/svg" width="16" height="16" viewBox="0 0 16 16"><path d="M12.596 11.596l-3.535 3.536a1.5 1.5 0 01-2.122 0l-3.535-3.536a6.5 6.5 0 119.192-9.193 6.5 6.5 0 010 9.193zm-1.06-8.132v-.001a5 5 0 10-7.072 7.072L8 14.07l3.536-3.534a5 5 0 000-7.072zM8 9a2 2 0 11-.001-3.999A2 2 0 018 9z"/></svg>

<svg xmlns="http://www.w3.org/2000/svg" width="16" height="16" viewBox="0 0 16 16">
  <defs/>
  <path d="M12.596,11.596 L9.061,15.132 C8.475,15.718 7.525,15.718 6.939,15.132 L3.404,11.596 C0.865,9.058 0.865,4.942 3.404,2.403 C5.942,-0.135 10.058,-0.135 12.596,2.403 C15.135,4.942 15.135,9.058 12.596,11.596 Z M11.536,3.464 L11.536,3.463 C9.583,1.51 6.417,1.51 4.464,3.463 C2.511,5.416 2.511,8.582 4.464,10.535 L8,14.07 L11.536,10.536 C13.489,8.583 13.489,5.417 11.536,3.464 Z M8,9 C6.895,9 6,8.105 6,7 C6,5.895 6.895,5 8,5 C9.105,5 10,5.895 10,7 C10,8.105 9.105,9 8,9 Z"/>
</svg>
